X:1
T:Title
%%score ( 1 2 ) ( 3 4 )
L:1/8
Q:1/4=113
M:12/8
K:Ab
V:1 treble nm="Strings 1, Soprano"
V:2 treble 
V:3 bass nm="Strings 1, Bass"
V:4 bass 
V:1
 z6 z2 E A2 E | c6- c2 z z3 | d6- d2 z z3 | e6- e2 z z3 | [Ac]6- [Ac]2 E A2 E | c6- c2 z z3 | %6
w: 1.~I~ have~ a~|home~ *|me,~ *|bright~ *|sea;~ * And~ when~ I~|pass~ *|
 d6- d2 z z3 | e6- e2 z z3 | A6- A2 z z3 | z2 [Ee] [Ee][Ee][Ee] .[Ee]3 z3 | %10
w: shore,~ *|Christ~ *|more~ more).~||
 z2 [Ec] [Ec][Ec][Ec] .[Ec]3 z3 | z2 [Ed] [Ed][Ed][Ed] .[Ed]3 z3 | z2 [_Gc] [Gc]2 [Gc] .[Gc]3 z3 | %13
w: |||
 z2 [FA] [FA][FA][FA] .[FA]3 z3 | z2 [EA] [EA][EA][EA] .[EA]3 z3 | z2 [Ee] [Ee][Ee][Ee] .[Ee]3 z3 | %16
w: |||
 [EA][EA][EA] [FA]2 [FA] .[EA]3 z3[Q:1/4=12][Q:1/4=113] |] %17
w: |
V:2
 x12 | z2 E E2 E E2 E B2 E | z2 G G2 G G2 d d2 B | z2 G G2 A B2 [Bd] [Ac]2 [GB] | x12 | %5
w: |* * * * * * for~|* * * * * * sion~|* * * * * * the~||
 z2 E E2 E E2 E B2 E | z2 G G2 G G2 d d2 B | z2 G G2 A B2 [Bd] [Ac]2 [GB] | E2 E F2 F .E3 z3 | %9
w: * * * * * * bright~|* * * * * * with~|* * * * * * er|* (for ev er *|
 x12 | x12 | x12 | x12 | x12 | x12 | x12 | x12 |] %17
w: ||||||||
V:3
 z12 | z2 [A,,A,] [C,A,]2 [E,A,] .[A,,A,]3 z3 | z2 [E,B,] [G,B,]2 B, .[E,B,]3 z3 | %3
 z2 [E,B,] [E,B,]2 [E,C] [E,D]2 [E,F] [E,E]2 [E,E] | [A,E]2 [A,E] [E,E]2 [C,E] .[A,,E]3 z3 | %5
 z2 [A,,A,] [C,A,]2 [E,A,] .[A,,A,]3 z3 | z2 [E,B,] [G,B,]2 B, .[E,B,]3 z3 | %7
 z2 [E,B,] [E,B,]2 [E,C] [E,D]2 [E,F] [E,E]2 [E,D] | C2 C D2 D C2 E, F,2 G, | %9
 z2 C CCC C2[K:bass] B, C2 A, | z2 A, A,A,A, A,2 C B,2 A, | z2 B, B,B,B, B,2 E, F,2 E, | %12
 z2 E E2 E E2[K:bass] _G, F,2 E, | z2 D DDD D2 F, E,2 D, | z2 A, A,A,A, A,2 A,, C,2 E, | %15
 z2 C CCC C2[K:bass] E, C,2 E, | .C3 z3 z6 |] %17
V:4
 x12 | x12 | x12 | x12 | x12 | x12 | x12 | x12 | A,,6- A,,2 z z3 | A,6- A,2[K:bass] z z3 | %10
 E,6- E,2 z z3 | G,6- G,2 z z3 | A,6- A,2[K:bass] z z3 | D,6- D,2 z z3 | C,6- C,2 z z3 | %15
 A,6- A,2[K:bass] z z3 | A,,-[A,,-C][A,,-C] [A,,-D]2 [A,,-D] [A,,C-]2 C z3 |] %17

